svgs/sharp-solid/person-arrow-up-from-line.svg

<svg xmlns="http://www.w3.org/2000/svg" viewBox="0 0 640 512"><!--! Font Awesome Pro 6.6.0 by @fontawesome - https://fontawesome.com License - https://fontawesome.com/license (Commercial License) Copyright 2024 Fonticons, Inc. --><path d="M192 96a48 48 0 1 0 0-96 48 48 0 1 0 0 96zm-51.1 32l-17.5 0L114 142.8l-81.7 128 53.9 34.4 33.8-53L120 448l-88 0L0 448l0 64 32 0 576 0 32 0 0-64-32 0-344 0 0-195.8 33.8 53 53.9-34.4L270 142.8 260.6 128l-17.5 0-102.2 0zM200 448l-16 0 0-96 16 0 0 96zM598.6 121.4l-80-80L496 18.7 473.4 41.4l-80 80L370.7 144 416 189.3l22.6-22.6L464 141.3 464 384l0 32 64 0 0-32 0-242.7 25.4 25.4L576 189.3 621.3 144l-22.6-22.6z"/></svg>

<svg xmlns="http://www.w3.org/2000/svg" viewBox="0 0 640 512"><!--! Font Awesome Pro 6.4.0 by @fontawesome - https://fontawesome.com License - https://fontawesome.com/license (Commercial License) Copyright 2023 Fonticons, Inc. --><path d="M192 96a48 48 0 1 0 0-96 48 48 0 1 0 0 96zm-51.1 32H123.4L114 142.8l-81.7 128 53.9 34.4 33.8-53V448H32 0v64H32 608h32V448H608 264V252.2l33.8 53 53.9-34.4L270 142.8 260.6 128H243.1 140.9zM200 448H184V352h16v96zM598.6 121.4l-80-80L496 18.7 473.4 41.4l-80 80L370.7 144 416 189.3l22.6-22.6L464 141.3 464 384v32h64V384 141.3l25.4 25.4L576 189.3 621.3 144l-22.6-22.6z"/></svg>
